src/images/icon-roadmap.svg

<svg width="35" height="35" viewBox="0 0 35 35" fill="none" xmlns="http://www.w3.org/2000/svg">
<g clip-path="url(#clip0)">
<path d="M17.5506 0.714233C26.8363 0.714233 34.2853 8.26525 34.2853 17.4489C34.2853 26.6326 26.7343 34.1836 17.5506 34.1836C8.36693 34.1836 0.713867 26.7346 0.713867 17.551C0.713867 8.3673 8.26489 0.714233 17.5506 0.714233Z" stroke="#999999" stroke-width="1.44" stroke-miterlimit="22.9256"/>
<path d="M17.5508 0.714233V6.42852" stroke="#999999" stroke-width="1.44" stroke-miterlimit="22.9256" stroke-linecap="round" stroke-linejoin="round"/>
<path d="M0.713867 17.551H6.42815" stroke="#999999" stroke-width="1.44" stroke-miterlimit="22.9256" stroke-linecap="round" stroke-linejoin="round"/>
<path d="M34.2856 17.551H28.5713" stroke="#999999" stroke-width="1.44" stroke-miterlimit="22.9256" stroke-linecap="round" stroke-linejoin="round"/>
<path d="M26.0205 28.5715C26.1226 27.5511 26.2246 25.1021 24.7961 23.8776C23.4695 22.6531 21.7348 22.7552 20.5103 21.7347C19.2859 20.7143 19.1838 19.3878 20.1022 17.9592C20.8165 16.8368 21.4287 15.1021 21.4287 13.6735C21.4287 11.2245 19.7961 9.28577 17.5512 9.28577C15.3063 9.28577 13.6736 11.2245 13.6736 13.6735C13.6736 15.1021 14.2859 16.8368 15.0001 17.9592C15.9185 19.3878 15.7144 20.7143 14.592 21.7347C13.4695 22.7552 11.6328 22.7552 10.3063 23.8776C8.77565 25.1021 8.87769 27.5511 8.97973 28.5715" stroke="#999999" stroke-width="1.44" stroke-miterlimit="22.9256" stroke-linecap="round" stroke-linejoin="round"/>
<path d="M6.22461 25.6123C6.53073 24.0817 6.9389 22.449 8.06134 21.4286C9.08175 20.5103 9.89808 20.7143 10.8164 20.0001C11.7348 19.1837 11.8369 18.4694 11.1226 17.347C10.5103 16.4286 10.1022 15.1021 10.1022 13.9797C10.1022 12.1429 11.4287 10.6123 13.0613 10.6123C13.4695 10.6123 13.8777 10.7143 14.2858 10.9184" stroke="#999999" stroke-width="1.44" stroke-miterlimit="22.9256" stroke-linecap="round" stroke-linejoin="round"/>
<path d="M28.7756 25.6123C28.5715 24.1837 28.0613 22.449 27.0409 21.4286C26.0205 20.5103 25.2042 20.7143 24.2858 20.0001C23.3674 19.1837 23.2654 18.4694 23.9797 17.347C24.5919 16.4286 25.0001 15.1021 25.0001 13.9797C25.0001 12.1429 23.6736 10.6123 22.0409 10.6123C21.6327 10.6123 21.2246 10.7143 20.8164 10.9184" stroke="#999999" stroke-width="1.44" stroke-miterlimit="22.9256" stroke-linecap="round" stroke-linejoin="round"/>
</g>
<defs>
<clipPath id="clip0">
<rect width="35" height="35" fill="white"/>
</clipPath>
</defs>
</svg>

<?xml version="1.0" encoding="utf-8"?>
<!-- Generator: Adobe Illustrator 24.1.0, SVG Export Plug-In . SVG Version: 6.00 Build 0)  -->
<svg version="1.1" id="Layer_1" xmlns="http://www.w3.org/2000/svg" xmlns:xlink="http://www.w3.org/1999/xlink" x="0px" y="0px"
	 viewBox="0 0 35 35" style="enable-background:new 0 0 35 35;" xml:space="preserve">
<style type="text/css">
	.st0{clip-path:url(#SVGID_2_);}
	.st1{fill:none;stroke:#FFFFFF;stroke-width:1.44;stroke-miterlimit:22.9256;}
	.st2{fill:none;stroke:#FFFFFF;stroke-width:1.44;stroke-linecap:round;stroke-linejoin:round;stroke-miterlimit:22.9256;}
</style>
<g>
	<defs>
		<rect id="SVGID_1_" width="35" height="35"/>
	</defs>
	<clipPath id="SVGID_2_">
		<use xlink:href="#SVGID_1_"  style="overflow:visible;"/>
	</clipPath>
	<g class="st0">
		<path class="st1" d="M17.6,0.7c9.3,0,16.7,7.6,16.7,16.7c0,9.2-7.6,16.7-16.7,16.7c-9.2,0-16.8-7.4-16.8-16.6
			C0.7,8.4,8.3,0.7,17.6,0.7z"/>
		<path class="st2" d="M17.6,0.7v5.7"/>
		<path class="st2" d="M0.7,17.6h5.7"/>
		<path class="st2" d="M34.3,17.6h-5.7"/>
		<path class="st2" d="M26,28.6c0.1-1,0.2-3.5-1.2-4.7c-1.3-1.2-3.1-1.1-4.3-2.1c-1.2-1-1.3-2.3-0.4-3.8c0.7-1.1,1.3-2.9,1.3-4.3
			c0-2.4-1.6-4.4-3.9-4.4s-3.9,1.9-3.9,4.4c0,1.4,0.6,3.2,1.3,4.3c0.9,1.4,0.7,2.8-0.4,3.8c-1.1,1-3,1-4.3,2.1
			c-1.5,1.2-1.4,3.7-1.3,4.7"/>
		<path class="st2" d="M6.2,25.6c0.3-1.5,0.7-3.2,1.8-4.2c1-0.9,1.8-0.7,2.8-1.4c0.9-0.8,1-1.5,0.3-2.7c-0.6-0.9-1-2.2-1-3.4
			c0-1.8,1.3-3.4,3-3.4c0.4,0,0.8,0.1,1.2,0.3"/>
		<path class="st2" d="M28.8,25.6c-0.2-1.4-0.7-3.2-1.7-4.2c-1-0.9-1.8-0.7-2.8-1.4c-0.9-0.8-1-1.5-0.3-2.7c0.6-0.9,1-2.2,1-3.4
			c0-1.8-1.3-3.4-3-3.4c-0.4,0-0.8,0.1-1.2,0.3"/>
	</g>
</g>
</svg>
